!!!OTL: 455a. Traum vom Rosenschneien.
!!!ARE: Europa, Mitteleuropa, Deutschland, Hessen, Odenwald
!!!SCT: E0455
!!!TXL: @@DE
!!!YEM: Copyright 1995, estate of Helmut Schaffrath.
**kern	**text
*ICvox	*
*M2/4	*
*k[b-]	*
*F:	*
!LO:TX:a:t=Aus dem Odenwald.	!
{8B-	Wohl
=1	=1
8f	heu-
8f	-te
8g	noch
8cc	und
=2	=2
4a	mor-
8g}	-gen
{8g	da
=3	=3
8a	blei-
8a	-be
8b-	ich
8dd	bei
=4	=4
4.cc}	dir,
{8cc	wenn
=5	=5
8dd	a-
8cc	-ber
8dd	kommt
8ee	der
=6	=6
8ff	drit-
8dd	-te
8cc}	Tag,
{16ccL	ſo
16b-J	.
=7	=7
8a	muß
8a	ich
8g	fort
8g	von
=8	=8
4f	hier.
8r}	.
{8cc	wenn
=9	=9
8dd	a-
8cc	-ber
8dd	kommt
8ee	der
=10	=10
8ff	drit-
8dd	-te
8cc}	Tag,
{16ccL	ſo
16b-J	.
=11	=11
8a	muß
8a	ich
8g	fort
8g	von
=12	=12
4f	hier.
8r}	.
==	==
!!!AGN: Liebes - Lied
!!!ONB: ESAC (Essen Associative Code) Database: ERK1
!!!AMT: simple duple
!!!AIN: vox
!!!EED: Helmut Schaffrath
!!!EEV: 1.0
!!!GTL: Liebeslieder [Alte (aus dem 13. bis 17. Jahrh.) mit ihrem jungen Nachwuchs]
!!!URL-scan: https://rosdok.uni-rostock.de/mcrviewer/recordIdentifier/rosdok_ppn745177662/iview2/phys_0280.iview2?x=0&y=1339.379278931301&scale=0.6647748595905341&rotation=0&layout=singlePageLayout
!!!ENC: Anna Maria Matuszewska
!!!EEV: 2024/10/12
*-	*-
